X: 318
%
U:~=!turn!
T: Lady Montgomery
C:
O:Scotland
B:Keith Norman MacDonald : "The Skye collection of the best reels & strathspeys extant" : 1887
Z:Ralph Palmer
R:Reel
M:C
L:1/8
K:Bb
d !segno!|: TB2 (BF) DEFD | TB2 (BG) ABcd | B/B/B (BF) DEFD | Cc(TcB) ABcd :|
B/B/B (fB) dB Tf2 | B/B/B (fB) {/^c}defb | B/B/B (fB) dBfd | (ed)cB ABcd |
B/B/B (fB) {/^c}dB Tf2 | (Bg)fe (de)fg | fdec dBcA | BGFD Cccd !segno!|| [" last time" [D8F8B8] |]


